**kern	**silbe	**kern	**silbe	**kern	**silbe	**harmony	**phrase	**leadinstrument	**rhyme	**timestamp	**harte
*ICvox	*	*ICvox	*	*ICvox	*	*M4/4	*	*	*	*	*M4/4
*VRlead	*	*VRharmonize	*	*VRharmonize	*	*	*	*	*	*	*
*Hstimme	*	*Nstimme	*	*Nstimme	*	*	*	*	*	*	*
*C:	*	*C:	*	*C:	*	*C:	*	*	*	*	*C:
*M4/4	*	*M4/4	*	*M4/4	*	*	*	*	*	*	*
*clefF4	*	*clefC3	*	*clefC3	*	*	*	*	*	*	*
r;	.	r;	.	r;	.	1r;	.	r	.	0	N.C.
=1	=1	=1	=1	=1	=1	=1	=1	=1	=1	=1	=1
*>Letter>A	*>Letter>A	*>Letter>A	*>Letter>A	*>Letter>A	*>Letter>A	*>Letter>A	*>Letter>A	*>Letter>A	*>Letter>A	*>Letter>A	*>Letter>A
*>Label>Intro	*>Label>Intro	*>Label>Intro	*>Label>Intro	*>Label>Intro	*>Label>Intro	*>Label>Intro	*>Label>Intro	*>Label>Intro	*>Label>Intro	*>Label>Intro	*>Label>Intro
1r	.	1r	.	1r	.	1CM	newline	guitar	.	0.511	C:sus2
=2	=2	=2	=2	=2	=2	=2	=2	=2	=2	=2	=2
1r	.	1r	.	1r	.	1CM	.	guitar	.	1.762	C:sus2
=3	=3	=3	=3	=3	=3	=3	=3	=3	=3	=3	=3
1r	.	1r	.	1r	.	1B-M	.	guitar	.	3.012	B-:maj6(9)
=4	=4	=4	=4	=4	=4	=4	=4	=4	=4	=4	=4
1r	.	1r	.	1r	.	2B-M	.	guitar	.	4.263	B-:maj6(9)
.	.	.	.	.	.	4FM	.	guitar	.	4.888	F:maj/3
.	.	.	.	.	.	4FM	.	guitar	.	5.201	F:maj
=5	=5	=5	=5	=5	=5	=5	=5	=5	=5	=5	=5
*>Letter>B	*>Letter>B	*>Letter>B	*>Letter>B	*>Letter>B	*>Letter>B	*>Letter>B	*>Letter>B	*>Letter>B	*>Letter>B	*>Letter>B	*>Letter>B
*>Label>Trans	*>Label>Trans	*>Label>Trans	*>Label>Trans	*>Label>Trans	*>Label>Trans	*>Label>Trans	*>Label>Trans	*>Label>Trans	*>Label>Trans	*>Label>Trans	*>Label>Trans
1r	.	1r	.	1r	.	1CM	newline	strings	.	5.514	C:maj
=6	=6	=6	=6	=6	=6	=6	=6	=6	=6	=6	=6
1r	.	1r	.	1r	.	1B-M	.	strings	.	6.789	B-:maj6(9)
=7	=7	=7	=7	=7	=7	=7	=7	=7	=7	=7	=7
1r	.	1r	.	1r	.	1CM	.	strings	.	8.065	C:maj
=8	=8	=8	=8	=8	=8	=8	=8	=8	=8	=8	=8
1r	.	1r	.	1r	.	1B-M	.	strings	.	9.34	B-:maj6(9)
=9	=9	=9	=9	=9	=9	=9	=9	=9	=9	=9	=9
*>Letter>C	*>Letter>C	*>Letter>C	*>Letter>C	*>Letter>C	*>Letter>C	*>Letter>C	*>Letter>C	*>Letter>C	*>Letter>C	*>Letter>C	*>Letter>C
*>Label>Verse	*>Label>Verse	*>Label>Verse	*>Label>Verse	*>Label>Verse	*>Label>Verse	*>Label>Verse	*>Label>Verse	*>Label>Verse	*>Label>Verse	*>Label>Verse	*>Label>Verse
4.c	Buy	1r	.	1r	.	1CM	newline	voice	.	10.616	C:maj
8c	for	.	.	.	.	.	.	.	.	.	.
4c	me	.	.	.	.	.	.	.	.	.	.
8c	the	.	.	.	.	.	.	.	.	.	.
[8B-	rain,	.	.	.	.	.	.	.	.	.	.
=10	=10	=10	=10	=10	=10	=10	=10	=10	=10	=10	=10
4B-]	_	1r	.	1r	.	1B-M	.	voice	.	11.871	B-:maj6(9)
4A	my	.	.	.	.	.	.	.	.	.	.
4G	dar-	.	.	.	.	.	.	.	.	.	.
4F	-ling,	.	.	.	.	.	.	.	.	.	.
=11	=11	=11	=11	=11	=11	=11	=11	=11	=11	=11	=11
4.G	buy	1r	.	1r	.	1CM	.	voice	.	13.126	C:maj
8G	for	.	.	.	.	.	.	.	.	.	.
4G	me	.	.	.	.	.	.	.	.	.	.
8F	the	.	.	.	.	.	.	.	.	.	.
[8G	rain	.	.	.	.	.	.	.	A	.	.
=12	=12	=12	=12	=12	=12	=12	=12	=12	=12	=12	=12
4G]	_	1r	.	1r	.	1B-M	.	voice	.	14.381	B-:maj6(9)
4r	.	.	.	.	.	.	.	.	.	.	.
2r	.	.	.	.	.	.	.	.	.	.	.
=13	=13	=13	=13	=13	=13	=13	=13	=13	=13	=13	=13
4.c	Buy	1r	.	1r	.	1CM	newline	voice	.	15.636	C:maj
8c	for	.	.	.	.	.	.	.	.	.	.
4c	me	.	.	.	.	.	.	.	.	.	.
8c	the	.	.	.	.	.	.	.	.	.	.
[8B-	cry-	.	.	.	.	.	.	.	.	.	.
=14	=14	=14	=14	=14	=14	=14	=14	=14	=14	=14	=14
8B-]	_	1r	.	1r	.	1B-M	.	voice	.	16.918	B-:maj6(9)
[8A	-stal	.	.	.	.	.	.	.	.	.	.
8A]	_	.	.	.	.	.	.	.	.	.	.
[8G	pools	.	.	.	.	.	.	.	.	.	.
4G]	_	.	.	.	.	.	.	.	.	.	.
4F	teat	.	.	.	.	.	.	.	.	.	.
=15	=15	=15	=15	=15	=15	=15	=15	=15	=15	=15	=15
4.G	fall	1r	.	1r	.	1CM	.	voice	.	18.199	C:maj
8G	u-	.	.	.	.	.	.	.	.	.	.
4G	-pon	.	.	.	.	.	.	.	.	.	.
8F	the	.	.	.	.	.	.	.	.	.	.
[8G	plain.	.	.	.	.	.	.	.	A	.	.
=16	=16	=16	=16	=16	=16	=16	=16	=16	=16	=16	=16
4G]	_	1r	.	1r	.	1Gmm	.	voice	.	19.48	G:min11/b3
4r	.	.	.	.	.	.	.	.	.	.	.
8F	And	.	.	.	.	.	.	.	.	.	.
8G	I'll	.	.	.	.	.	.	.	.	.	.
4A	_	.	.	.	.	.	.	.	.	.	.
=17	=17	=17	=17	=17	=17	=17	=17	=17	=17	=17	=17
4.A	buy	4.c	Buy	1r	.	1FM	newline	voice	.	20.761	F:maj
8A	for	8c	for	.	.	.	.	.	.	.	.
4A	you	4c	you	.	.	.	.	.	.	.	.
8A	a	8c	a	.	.	.	.	.	.	.	.
[8A	rain	[8c	rain	.	.	.	.	.	A	.	.
=18	=18	=18	=18	=18	=18	=18	=18	=18	=18	=18	=18
4A]	_	4c]	_	1r	.	1FM	.	voice	.	22.029	F:maj
4A	bow,	4c	bow,	.	.	.	.	.	B	.	.
4r	.	4r	.	.	.	.	.	.	.	.	.
8A	and	8c	and	.	.	.	.	.	.	.	.
8A	a	8c	a	.	.	.	.	.	.	.	.
=19	=19	=19	=19	=19	=19	=19	=19	=19	=19	=19	=19
8G	mil-	8d	mil-	1r	.	1GMm	.	voice	.	23.296	G:7
[8G	-lion	[8d	-lion	.	.	.	.	.	.	.	.
4G]	_	4d]	_	.	.	.	.	.	.	.	.
4G	pots	4d	pots	.	.	.	.	.	.	.	.
8F	of	8c 8f	of	.	.	.	.	.	.	.	.
[8G	gold	[8d [8f	gold	.	.	.	.	.	B	.	.
=20	=20	=20	=20	=20	=20	=20	=20	=20	=20	=20	=20
4G]	_	4d] 4f]	_	1r	.	1GMm	.	voice	.	24.564	G:7
4r	.	4r	.	.	.	.	.	.	.	.	.
2r	.	2r	.	.	.	.	.	.	.	.	.
=21	=21	=21	=21	=21	=21	=21	=21	=21	=21	=21	=21
8c	Buy	8e	Buy	1r	.	1CM	newline	voice	.	25.831	C:maj
[8c	it	[8e	it	.	.	.	.	.	.	.	.
8c]	_	8e]	_	.	.	.	.	.	.	.	.
4.c	for	4.e	for	.	.	.	.	.	.	.	.
8c	me	8e	me	.	.	.	.	.	.	.	.
[8c	now,	[8f	now,	.	.	.	.	.	.	.	.
=22	=22	=22	=22	=22	=22	=22	=22	=22	=22	=22	=22
4.c]	_	4.f]	_	1r	.	1B-M	.	voice	.	27.1	B-:maj6(9)
[8G	babe,	[8d	babe,	.	.	.	.	.	.	.	.
4G]	_	4d]	_	.	.	.	.	.	.	.	.
8r	.	8r	.	.	.	.	.	.	.	.	.
8F	be-	8B-	be-	.	.	.	.	.	.	.	.
=23	=23	=23	=23	=23	=23	=23	=23	=23	=23	=23	=23
8G	-fore	8c	-fore	1r	.	1FM	.	voice	.	28.369	F:maj
[8G	I	[8c	I	.	.	.	.	.	.	.	.
4G]	_	4c]	_	.	.	.	.	.	.	.	.
4G	am	4c	am	.	.	.	.	.	.	.	.
8F	too	8d	too	.	.	.	.	.	.	.	.
[8G	old	[8d	old	.	.	.	.	.	B	.	.
=24	=24	=24	=24	=24	=24	=24	=24	=24	=24	=24	=24
1G_	_	1d_	_	4r	.	1B-M	.	voice	.	29.637	B-:maj6(9)
.	.	.	.	4c	I	.	.	.	.	.	.
.	.	.	.	4B-	am	.	.	.	.	.	.
.	.	.	.	8A	too	.	.	.	.	.	.
.	.	.	.	[8G	old...	.	.	.	.	.	.
=25	=25	=25	=25	=25	=25	=25	=25	=25	=25	=25	=25
2.G]	_	2.d]	_	2.G]	_	1B-M	.	voice	.	30.906	B-:maj6(9)
4F	_	[4c	_	4F	_	.	.	.	.	.	.
=26	=26	=26	=26	=26	=26	=26	=26	=26	=26	=26	=26
*>Letter>B	*>Letter>B	*>Letter>B	*>Letter>B	*>Letter>B	*>Letter>B	*>Letter>B	*>Letter>B	*>Letter>B	*>Letter>B	*>Letter>B	*>Letter>B
*>Label>Trans	*>Label>Trans	*>Label>Trans	*>Label>Trans	*>Label>Trans	*>Label>Trans	*>Label>Trans	*>Label>Trans	*>Label>Trans	*>Label>Trans	*>Label>Trans	*>Label>Trans
4G	_	4c]	_	4G	_	1CM	->newline	strings	.	32.175	C:maj
4r	.	4r	.	4r	.	.	.	.	.	.	.
2r	.	2r	.	2r	.	.	.	.	.	.	.
=27	=27	=27	=27	=27	=27	=27	=27	=27	=27	=27	=27
1r	.	1r	.	1r	.	1Gmm	.	strings	.	33.452	G:min7
=28	=28	=28	=28	=28	=28	=28	=28	=28	=28	=28	=28
1r	.	1r	.	1r	.	1CM	.	strings	.	34.73	C:maj
=29	=29	=29	=29	=29	=29	=29	=29	=29	=29	=29	=29
1r	.	1r	.	1r	.	1Gmm	.	strings	.	36.007	G:min7
=30	=30	=30	=30	=30	=30	=30	=30	=30	=30	=30	=30
*>Letter>C	*>Letter>C	*>Letter>C	*>Letter>C	*>Letter>C	*>Letter>C	*>Letter>C	*>Letter>C	*>Letter>C	*>Letter>C	*>Letter>C	*>Letter>C
*>Label>Verse	*>Label>Verse	*>Label>Verse	*>Label>Verse	*>Label>Verse	*>Label>Verse	*>Label>Verse	*>Label>Verse	*>Label>Verse	*>Label>Verse	*>Label>Verse	*>Label>Verse
4.c	Buy	1r	.	1r	.	1CM	newline	voice	.	37.285	C:maj
8c	for	.	.	.	.	.	.	.	.	.	.
4c	me	.	.	.	.	.	.	.	.	.	.
8c	the	.	.	.	.	.	.	.	.	.	.
[8B-	sun,	.	.	.	.	.	.	.	C	.	.
=31	=31	=31	=31	=31	=31	=31	=31	=31	=31	=31	=31
4B-]	_	1r	.	1r	.	1B-M	.	voice	.	38.561	B-:maj6(9)
4A	my	.	.	.	.	.	.	.	.	.	.
4G	dar-	.	.	.	.	.	.	.	.	.	.
4F	-ling,,	.	.	.	.	.	.	.	.	.	.
=32	=32	=32	=32	=32	=32	=32	=32	=32	=32	=32	=32
4.G	buy	1r	.	1r	.	1CM	.	voice	.	39.837	C:maj
8G	for	.	.	.	.	.	.	.	.	.	.
4G	me	.	.	.	.	.	.	.	.	.	.
8F	the	.	.	.	.	.	.	.	.	.	.
[8G	sun	.	.	.	.	.	.	.	C	.	.
=33	=33	=33	=33	=33	=33	=33	=33	=33	=33	=33	=33
4G]	_	1r	.	1r	.	1Gmm	.	voice	.	41.113	G:min7
4r	.	.	.	.	.	.	.	.	.	.	.
2r	.	.	.	.	.	.	.	.	.	.	.
=34	=34	=34	=34	=34	=34	=34	=34	=34	=34	=34	=34
4.c	Buy	1r	.	1r	.	1CM	newline	voice	.	42.39	C:maj
8c	for	.	.	.	.	.	.	.	.	.	.
4c	me	.	.	.	.	.	.	.	.	.	.
8c	the	.	.	.	.	.	.	.	.	.	.
[8B-	light	.	.	.	.	.	.	.	.	.	.
=35	=35	=35	=35	=35	=35	=35	=35	=35	=35	=35	=35
8B-]	_	1r	.	1r	.	1B-M	.	voice	.	43.673	B-:maj6(9)
[8A	that	.	.	.	.	.	.	.	.	.	.
8A]	_	.	.	.	.	.	.	.	.	.	.
[8G	falls	.	.	.	.	.	.	.	.	.	.
4G]	_	.	.	.	.	.	.	.	.	.	.
4F	when	.	.	.	.	.	.	.	.	.	.
=36	=36	=36	=36	=36	=36	=36	=36	=36	=36	=36	=36
4G	day	1r	.	1r	.	1CM	.	voice	.	44.957	C:maj
4G	has	.	.	.	.	.	.	.	.	.	.
4G	just	.	.	.	.	.	.	.	.	.	.
8F	be-	.	.	.	.	.	.	.	.	.	.
[8G	-gun	.	.	.	.	.	.	.	C	.	.
=37	=37	=37	=37	=37	=37	=37	=37	=37	=37	=37	=37
4G]	_	1r	.	1r	.	1B-M	.	voice	.	46.241	B-:maj6(9)
4r	.	.	.	.	.	.	.	.	.	.	.
8G	And	.	.	.	.	.	.	.	.	.	.
8G	I'll	.	.	.	.	.	.	.	.	.	.
4A	_	.	.	.	.	.	.	.	.	.	.
=38	=38	=38	=38	=38	=38	=38	=38	=38	=38	=38	=38
4.A	buy	4.c	Buy	1r	.	1FM	newline	voice	.	47.525	F:maj
8A	for	8c	for	.	.	.	.	.	.	.	.
4A	you	4c	you	.	.	.	.	.	.	.	.
8A	a	8c	a	.	.	.	.	.	.	.	.
[8A	sha-	[8c	sha-	.	.	.	.	.	.	.	.
=39	=39	=39	=39	=39	=39	=39	=39	=39	=39	=39	=39
8A]	-dow,	8c]	-dow,	1r	.	1FM	.	voice	.	48.793	F:maj
[8A	_	[8c	_	.	.	.	.	.	.	.	.
4A]	_	4c]	_	.	.	.	.	.	.	.	.
4r	.	4r	.	.	.	.	.	.	.	.	.
8A	to	8c	to	.	.	.	.	.	.	.	.
8A	pro-	8c	pro-	.	.	.	.	.	.	.	.
=40	=40	=40	=40	=40	=40	=40	=40	=40	=40	=40	=40
8G	-tect	8d	-tect	1r	.	1GMm	.	voice	.	50.061	G:7
[8G	you	[8d	you	.	.	.	.	.	.	.	.
4G]	_	4d]	_	.	.	.	.	.	.	.	.
4G	from	4d	from	.	.	.	.	.	.	.	.
8F	the	8c	the	.	.	.	.	.	.	.	.
[8G	day	[8d [8f	day	.	.	.	.	.	A	.	.
=41	=41	=41	=41	=41	=41	=41	=41	=41	=41	=41	=41
4G]	_	4d] 4f]	_	1r	.	1GMm	.	voice	.	51.33	G:7
4r	.	4r	.	.	.	.	.	.	.	.	.
2r	.	2r	.	.	.	.	.	.	.	.	.
=42	=42	=42	=42	=42	=42	=42	=42	=42	=42	=42	=42
8c	Buy	8e	Buy	1r	.	1CM	newline	voice	.	52.598	C:maj
4c	it	4e	it	.	.	.	.	.	.	.	.
4.c	for	4.e	for	.	.	.	.	.	.	.	.
8c	me	8e	me	.	.	.	.	.	.	.	.
[8c	now,	[8f	now,	.	.	.	.	.	.	.	.
=43	=43	=43	=43	=43	=43	=43	=43	=43	=43	=43	=43
4.c]	_	4.f]	_	1r	.	1B-M	.	voice	.	53.891	B-:maj6(9)
[8G	babe,	[8d	babe,	.	.	.	.	.	.	.	.
4G]	_	4d]	_	.	.	.	.	.	.	.	.
8r	.	8r	.	.	.	.	.	.	.	.	.
8F	be-	8B-	be-	.	.	.	.	.	.	.	.
=44	=44	=44	=44	=44	=44	=44	=44	=44	=44	=44	=44
8G	-fore	8c	-fore	1r	.	1FM	.	voice	.	55.184	F:maj
[8G	I	[8c	I	.	.	.	.	.	.	.	.
4G]	_	4c]	_	.	.	.	.	.	.	.	.
4G	go	4c	go	.	.	.	.	.	.	.	.
8F	a-	8d	a-	.	.	.	.	.	.	.	.
[8G	-way	[8d	-way	.	.	.	.	.	A	.	.
=45	=45	=45	=45	=45	=45	=45	=45	=45	=45	=45	=45
1G_	_	1d_	_	4r	.	1B-M	.	voice	.	56.477	B-:maj6(9)
.	.	.	.	4c	I'll	.	.	.	.	.	.
.	.	.	.	4B-	go	.	.	.	.	.	.
.	.	.	.	4A	a-	.	.	.	.	.	.
=46	=46	=46	=46	=46	=46	=46	=46	=46	=46	=46	=46
2.G]	_	2.d]	_	2.G	-way...	1B-M	.	voice	A	57.77	B-:maj6(9)
4F	_	[4c	_	4F	_	.	.	.	.	.	.
=47	=47	=47	=47	=47	=47	=47	=47	=47	=47	=47	=47
*>Letter>B	*>Letter>B	*>Letter>B	*>Letter>B	*>Letter>B	*>Letter>B	*>Letter>B	*>Letter>B	*>Letter>B	*>Letter>B	*>Letter>B	*>Letter>B
*>Label>Trans	*>Label>Trans	*>Label>Trans	*>Label>Trans	*>Label>Trans	*>Label>Trans	*>Label>Trans	*>Label>Trans	*>Label>Trans	*>Label>Trans	*>Label>Trans	*>Label>Trans
4G	_	4c]	_	4G	_	1CM	->newline	strings	.	59.063	C:maj
4r	.	4r	.	4r	.	.	.	.	.	.	.
2r	.	2r	.	2r	.	.	.	.	.	.	.
=48	=48	=48	=48	=48	=48	=48	=48	=48	=48	=48	=48
1r	.	1r	.	1r	.	1Gmm	.	strings	.	60.348	G:min7
=49	=49	=49	=49	=49	=49	=49	=49	=49	=49	=49	=49
1r	.	1r	.	1r	.	1CM	.	strings	.	61.634	C:maj
=50	=50	=50	=50	=50	=50	=50	=50	=50	=50	=50	=50
1r	.	1r	.	1r	.	1Gmm	.	strings	.	62.919	G:min7
=51	=51	=51	=51	=51	=51	=51	=51	=51	=51	=51	=51
*>Letter>C	*>Letter>C	*>Letter>C	*>Letter>C	*>Letter>C	*>Letter>C	*>Letter>C	*>Letter>C	*>Letter>C	*>Letter>C	*>Letter>C	*>Letter>C
*>Label>Verse	*>Label>Verse	*>Label>Verse	*>Label>Verse	*>Label>Verse	*>Label>Verse	*>Label>Verse	*>Label>Verse	*>Label>Verse	*>Label>Verse	*>Label>Verse	*>Label>Verse
4.c	Buy	1r	.	1r	.	1CM	newline	voice	.	64.204	C:maj
8c	for	.	.	.	.	.	.	.	.	.	.
4c	me	.	.	.	.	.	.	.	.	.	.
8c	the	.	.	.	.	.	.	.	.	.	.
[8B-	ro	.	.	.	.	.	.	.	.	.	.
=52	=52	=52	=52	=52	=52	=52	=52	=52	=52	=52	=52
8B-]	_	1r	.	1r	.	1B-M	.	voice	.	65.488	B-:maj6(9)
[8A	bin,	.	.	.	.	.	.	.	.	.	.
8A]	_	.	.	.	.	.	.	.	.	.	.
[8G	dar-	.	.	.	.	.	.	.	.	.	.
8G]	_	.	.	.	.	.	.	.	.	.	.
[8F	-ling,	.	.	.	.	.	.	.	d	.	.
4F]	_	.	.	.	.	.	.	.	.	.	.
=53	=53	=53	=53	=53	=53	=53	=53	=53	=53	=53	=53
4.G	buy	1r	.	1r	.	1CM	.	voice	.	66.772	C:maj
8G	for	.	.	.	.	.	.	.	.	.	.
4G	me	.	.	.	.	.	.	.	.	.	.
8F	the	.	.	.	.	.	.	.	.	.	.
[8G	wing	.	.	.	.	.	.	.	D	.	.
=54	=54	=54	=54	=54	=54	=54	=54	=54	=54	=54	=54
4G]	_	1r	.	1r	.	1B-M	.	voice	.	68.056	B-:maj6(9)
4r	.	.	.	.	.	.	.	.	.	.	.
2r	.	.	.	.	.	.	.	.	.	.	.
=55	=55	=55	=55	=55	=55	=55	=55	=55	=55	=55	=55
4.c	Buy	1r	.	1r	.	1CM	newline	voice	.	69.34	C:maj
8c	for	.	.	.	.	.	.	.	.	.	.
4c	me	.	.	.	.	.	.	.	.	.	.
8c	a	.	.	.	.	.	.	.	.	.	.
[8B-	spar-	.	.	.	.	.	.	.	.	.	.
=56	=56	=56	=56	=56	=56	=56	=56	=56	=56	=56	=56
8B-]	_	1r	.	1r	.	1B-M	.	voice	.	70.643	B-:maj6(9)
[8A	-row,	.	.	.	.	.	.	.	.	.	.
4A]	_	.	.	.	.	.	.	.	.	.	.
8G	or	.	.	.	.	.	.	.	.	.	.
[8F	most	.	.	.	.	.	.	.	.	.	.
4F]	_	.	.	.	.	.	.	.	.	.	.
=57	=57	=57	=57	=57	=57	=57	=57	=57	=57	=57	=57
8G	a-	1r	.	1r	.	1CM	.	voice	.	71.945	C:maj
[8G	-ny	.	.	.	.	.	.	.	.	.	.
4G]	_	.	.	.	.	.	.	.	.	.	.
8G	fly-	.	.	.	.	.	.	.	.	.	.
[8F	-ing	.	.	.	.	.	.	.	.	.	.
8F]	_	.	.	.	.	.	.	.	.	.	.
[8G	thing	.	.	.	.	.	.	.	D	.	.
=58	=58	=58	=58	=58	=58	=58	=58	=58	=58	=58	=58
4G]	_	1r	.	1r	.	1B-M	.	voice	.	73.247	B-:maj6(9)
4r	.	.	.	.	.	.	.	.	.	.	.
8G	And	.	.	.	.	.	.	.	.	.	.
8G	I'll	.	.	.	.	.	.	.	.	.	.
4A	_	.	.	.	.	.	.	.	.	.	.
=59	=59	=59	=59	=59	=59	=59	=59	=59	=59	=59	=59
4.A	buy	4.c	Buy	1r	.	1FM	newline	voice	.	74.549	F:maj
8A	for	8c	for	.	.	.	.	.	.	.	.
4A	you	4c	you	.	.	.	.	.	.	.	.
8A	a	8c	a	.	.	.	.	.	.	.	.
[8A	tree,	[8c	tree,	.	.	.	.	.	D	.	.
=60	=60	=60	=60	=60	=60	=60	=60	=60	=60	=60	=60
8A]	_	8c]	_	1r	.	1FM	.	voice	.	75.815	F:maj
[8A	my	[8c	my	.	.	.	.	.	.	.	.
8A]	_	8c]	_	.	.	.	.	.	.	.	.
[8A	love,	[8c	love,	.	.	.	.	.	.	.	.
4A]	_	4c]	_	.	.	.	.	.	.	.	.
8F	where	8c	where	.	.	.	.	.	.	.	.
8F	a	8c	a	.	.	.	.	.	.	.	.
=61	=61	=61	=61	=61	=61	=61	=61	=61	=61	=61	=61
8G	ro-	8d	ro-	1r	.	1GMm	.	voice	.	77.08	G:7
[8G	-bin's	[8d	-bin's	.	.	.	.	.	.	.	.
4G]	_	4d]	_	.	.	.	.	.	.	.	.
4G	nest	4d	nest	.	.	.	.	.	.	.	.
8F	may	8c 8e	may	.	.	.	.	.	.	.	.
[8G	grow	[8d [8f	grow	.	.	.	.	.	B	.	.
=62	=62	=62	=62	=62	=62	=62	=62	=62	=62	=62	=62
4G]	_	4d] 4f]	_	1r	.	1GMm	.	voice	.	78.346	G:7
4r	.	4r	.	.	.	.	.	.	.	.	.
2r	.	2r	.	.	.	.	.	.	.	.	.
=63	=63	=63	=63	=63	=63	=63	=63	=63	=63	=63	=63
8c	Buy	8e	Buy	1r	.	1CM	newline	voice	.	79.612	C:maj
4c	it	4e	it	.	.	.	.	.	.	.	.
4.c	for	4.e	for	.	.	.	.	.	.	.	.
8c	me	8e	me	.	.	.	.	.	.	.	.
[8c	now,	[8f	now,	.	.	.	.	.	.	.	.
=64	=64	=64	=64	=64	=64	=64	=64	=64	=64	=64	=64
4.c]	_	4.f]	_	1r	.	1B-M	.	voice	.	80.919	B-:maj6(9)
[8G	babe,	[8d	babe,	.	.	.	.	.	.	.	.
4G]	_	4d]	_	.	.	.	.	.	.	.	.
8r	.	8r	.	.	.	.	.	.	.	.	.
8F	the	8B-	the	.	.	.	.	.	.	.	.
=65	=65	=65	=65	=65	=65	=65	=65	=65	=65	=65	=65
4G	years	4c	years	1r	.	1FM	.	voice	.	82.226	F:maj
4G	all	4c	all	.	.	.	.	.	.	.	.
8G	hur-	8c	hur-	.	.	.	.	.	.	.	.
[8F	-ry	[8c	-ry	.	.	.	.	.	.	.	.
8F]	_	8c]	_	.	.	.	.	.	.	.	.
[8G	so	[8d	so	.	.	.	.	.	B	.	.
=66	=66	=66	=66	=66	=66	=66	=66	=66	=66	=66	=66
1G_	_	1d_	_	4r	.	1B-M	.	voice	.	83.534	B-:maj6(9)
.	.	.	.	4c	They	.	.	.	.	.	.
.	.	.	.	8B-	hur-	.	.	.	.	.	.
.	.	.	.	[8A	-ry	.	.	.	.	.	.
.	.	.	.	4A]	_	.	.	.	.	.	.
=67	=67	=67	=67	=67	=67	=67	=67	=67	=67	=67	=67
2.G]	_	2.d]	_	2.G	so...	1B-M	.	voice	.	84.841	B-:maj6(9)
4F	_	[4c	_	4F	_	.	.	.	.	.	.
=68	=68	=68	=68	=68	=68	=68	=68	=68	=68	=68	=68
*>Letter>B	*>Letter>B	*>Letter>B	*>Letter>B	*>Letter>B	*>Letter>B	*>Letter>B	*>Letter>B	*>Letter>B	*>Letter>B	*>Letter>B	*>Letter>B
*>Label>Trans	*>Label>Trans	*>Label>Trans	*>Label>Trans	*>Label>Trans	*>Label>Trans	*>Label>Trans	*>Label>Trans	*>Label>Trans	*>Label>Trans	*>Label>Trans	*>Label>Trans
4G	_	4c]	_	4G	_	1CM	->newline	strings	.	86.149	C:maj
4r	.	4r	.	4r	.	.	.	.	.	.	.
2r	.	2r	.	2r	.	.	.	.	.	.	.
=69	=69	=69	=69	=69	=69	=69	=69	=69	=69	=69	=69
1r	.	1r	.	1r	.	1Gmm	.	strings	.	87.422	G:min7
=70	=70	=70	=70	=70	=70	=70	=70	=70	=70	=70	=70
1r	.	1r	.	1r	.	1CM	.	strings	.	88.696	C:maj
=71	=71	=71	=71	=71	=71	=71	=71	=71	=71	=71	=71
2r	.	1r	.	1r	.	1Gmm	.	strings	.	89.97	G:min7
4r	.	.	.	.	.	.	.	.	.	.	.
4c	I	.	.	.	.	.	.	.	.	.	.
=72	=72	=72	=72	=72	=72	=72	=72	=72	=72	=72	=72
*>Letter>C	*>Letter>C	*>Letter>C	*>Letter>C	*>Letter>C	*>Letter>C	*>Letter>C	*>Letter>C	*>Letter>C	*>Letter>C	*>Letter>C	*>Letter>C
*>Label>Verse	*>Label>Verse	*>Label>Verse	*>Label>Verse	*>Label>Verse	*>Label>Verse	*>Label>Verse	*>Label>Verse	*>Label>Verse	*>Label>Verse	*>Label>Verse	*>Label>Verse
8c	can-	1r	.	1r	.	1CM	newline	voice	.	91.243	C:maj
[8c	-not	.	.	.	.	.	.	.	.	.	.
8c]	_	.	.	.	.	.	.	.	.	.	.
[8c	buy	.	.	.	.	.	.	.	.	.	.
4c]	_	.	.	.	.	.	.	.	.	.	.
8c	you	.	.	.	.	.	.	.	.	.	.
[8B-	hap-	.	.	.	.	.	.	.	.	.	.
=73	=73	=73	=73	=73	=73	=73	=73	=73	=73	=73	=73
8B-]	_	1r	.	1r	.	1B-M	.	voice	.	92.54	B-:maj6(9)
[8A	-pi-	.	.	.	.	.	.	.	.	.	.
8A]	_	.	.	.	.	.	.	.	.	.	.
[8G	-ness,	.	.	.	.	.	.	.	.	.	.
4G]	_	.	.	.	.	.	.	.	.	.	.
4F	I	.	.	.	.	.	.	.	.	.	.
=74	=74	=74	=74	=74	=74	=74	=74	=74	=74	=74	=74
8G	can-	1r	.	1r	.	1CM	.	voice	.	93.837	C:maj
[8G	-not	.	.	.	.	.	.	.	.	.	.
8G]	_	.	.	.	.	.	.	.	.	.	.
[8G	buy	.	.	.	.	.	.	.	.	.	.
4G]	_	.	.	.	.	.	.	.	.	.	.
8F	you	.	.	.	.	.	.	.	.	.	.
[8G	_	.	.	.	.	.	.	.	.	.	.
=75	=75	=75	=75	=75	=75	=75	=75	=75	=75	=75	=75
4G]	years.	1r	.	1r	.	1B-M	.	voice	E	95.134	B-:maj6(9)
4r	.	.	.	.	.	.	.	.	.	.	.
4r	.	.	.	.	.	.	.	.	.	.	.
4c	I	.	.	.	.	.	.	.	.	.	.
=76	=76	=76	=76	=76	=76	=76	=76	=76	=76	=76	=76
8c	can-	1r	.	1r	.	1CM	newline	voice	.	96.431	C:maj
[8c	-not	.	.	.	.	.	.	.	.	.	.
8c]	_	.	.	.	.	.	.	.	.	.	.
[8c	buy	.	.	.	.	.	.	.	.	.	.
4c]	_	.	.	.	.	.	.	.	.	.	.
8c	you	.	.	.	.	.	.	.	.	.	.
[8B-	hap-	.	.	.	.	.	.	.	.	.	.
=77	=77	=77	=77	=77	=77	=77	=77	=77	=77	=77	=77
8B-]	_	1r	.	1r	.	1B-M	.	voice	.	97.705	B-:maj6(9)
[8A	-pi-	.	.	.	.	.	.	.	.	.	.
8A]	_	.	.	.	.	.	.	.	.	.	.
[8G	-ness,	.	.	.	.	.	.	.	.	.	.
4G]	_	.	.	.	.	.	.	.	.	.	.
4F	in	.	.	.	.	.	.	.	.	.	.
=78	=78	=78	=78	=78	=78	=78	=78	=78	=78	=78	=78
4G	place	1r	.	1r	.	1CM	.	voice	.	98.978	C:maj
8G	of	.	.	.	.	.	.	.	.	.	.
[8G	all	.	.	.	.	.	.	.	.	.	.
4G]	_	.	.	.	.	.	.	.	.	.	.
8F	the	.	.	.	.	.	.	.	.	.	.
[8G	tears	.	.	.	.	.	.	.	E	.	.
=79	=79	=79	=79	=79	=79	=79	=79	=79	=79	=79	=79
4G]	_	1r	.	1r	.	1B-M	.	voice	.	100.251	B-:maj6(9)
8r	.	.	.	.	.	.	.	.	.	.	.
8G	But	.	.	.	.	.	.	.	.	.	.
8G	I	.	.	.	.	.	.	.	.	.	.
[8A	can	.	.	.	.	.	.	.	.	.	.
4A]	_	.	.	.	.	.	.	.	.	.	.
=80	=80	=80	=80	=80	=80	=80	=80	=80	=80	=80	=80
4.A	buy	4.c	Buy	1r	.	1FM	newline	voice	.	101.525	F:maj
8A	for	8c	for	.	.	.	.	.	.	.	.
4A	you	4c	you	.	.	.	.	.	.	.	.
8A	a	8c	a	.	.	.	.	.	.	.	.
[8A	grave	[8c	grave	.	.	.	.	.	.	.	.
=81	=81	=81	=81	=81	=81	=81	=81	=81	=81	=81	=81
4A]	_	4c]	_	1r	.	1FM	.	voice	.	102.821	F:maj
4A	stone,	4c	stone,	.	.	.	.	.	.	.	.
4r	.	4r	.	.	.	.	.	.	.	.	.
8r	.	8r	.	.	.	.	.	.	.	.	.
8F	to	8c	to	.	.	.	.	.	.	.	.
=82	=82	=82	=82	=82	=82	=82	=82	=82	=82	=82	=82
8G	lay	8d	lay	1r	.	1GMm	.	voice	.	104.116	G:7
[8G	be	[8d	be	.	.	.	.	.	.	.	.
4G]	_	4d]	_	.	.	.	.	.	.	.	.
4G	hind	4d	hind	.	.	.	.	.	.	.	.
8F	your	8c 8e	your	.	.	.	.	.	.	.	.
[8G	head	[8d [8f	head	.	.	.	.	.	F	.	.
=83	=83	=83	=83	=83	=83	=83	=83	=83	=83	=83	=83
4G]	_	4d] 4f]	_	1r	.	1GMm	.	voice	.	105.412	G:7
4r	.	4r	.	.	.	.	.	.	.	.	.
2r	.	2r	.	.	.	.	.	.	.	.	.
=84	=84	=84	=84	=84	=84	=84	=84	=84	=84	=84	=84
4c	Grave-	4e	Grave-	1r	.	1CM	newline	voice	.	106.708	C:maj
4c	-stones	4e	-stones	.	.	.	.	.	.	.	.
4c	cheer	4e	cheer	.	.	.	.	.	.	.	.
4c	the	4e	the	.	.	.	.	.	.	.	.
=85	=85	=85	=85	=85	=85	=85	=85	=85	=85	=85	=85
8c	li-	8f	li-	1r	.	1B-M	.	voice	.	107.981	B-:maj6(9)
[8G	-ving,	[8d	-ving,	.	.	.	.	.	.	.	.
8G]	_	8d]	_	.	.	.	.	.	.	.	.
[8G	dear,	[8d	dear,	.	.	.	.	.	.	.	.
4G]	_	4d]	_	.	.	.	.	.	.	.	.
4G	they're	4c	they're	.	.	.	.	.	.	.	.
=86	=86	=86	=86	=86	=86	=86	=86	=86	=86	=86	=86
8G	no	8c	no	1r	.	1FM	.	voice	.	109.254	F:maj
[8G	use	[8c	use	.	.	.	.	.	.	.	.
4G]	_	4c]	_	.	.	.	.	.	.	.	.
4G	to	4c	to	.	.	.	.	.	.	.	.
8~F	the	8~d	the	.	.	.	.	.	.	.	.
[8G	dead	[8d	dead	.	.	.	.	.	F	.	.
=87	=87	=87	=87	=87	=87	=87	=87	=87	=87	=87	=87
1G_	_	1d_	_	4c	No	1B-M	.	voice	.	110.528	B-:maj6(9)
.	.	.	.	4c	use	.	.	.	.	.	.
.	.	.	.	4B-	to	.	.	.	.	.	.
.	.	.	.	8A	the	.	.	.	.	.	.
.	.	.	.	[8c	dead...	.	.	.	.	.	.
=88	=88	=88	=88	=88	=88	=88	=88	=88	=88	=88	=88
2.G]	_	2.d]	_	2.c]	_	1B-M	.	voice	.	111.801	B-:maj6(9)
4F	_	[4c	_	4B-	_	.	.	.	.	.	.
=89	=89	=89	=89	=89	=89	=89	=89	=89	=89	=89	=89
*>Letter>B	*>Letter>B	*>Letter>B	*>Letter>B	*>Letter>B	*>Letter>B	*>Letter>B	*>Letter>B	*>Letter>B	*>Letter>B	*>Letter>B	*>Letter>B
*>Label>Trans	*>Label>Trans	*>Label>Trans	*>Label>Trans	*>Label>Trans	*>Label>Trans	*>Label>Trans	*>Label>Trans	*>Label>Trans	*>Label>Trans	*>Label>Trans	*>Label>Trans
4G	_	4c]	_	4c	_	1CM	->newline	strings	.	113.074	C:maj
4r	.	4r	.	2.r	.	.	.	.	.	.	.
2r	.	2r	.	.	.	.	.	.	.	.	.
=90	=90	=90	=90	=90	=90	=90	=90	=90	=90	=90	=90
1r	.	1r	.	1r	.	1Gmm	.	strings	.	114.386	G:min7
=91	=91	=91	=91	=91	=91	=91	=91	=91	=91	=91	=91
1r	.	1r	.	1r	.	1CM	.	strings	.	115.699	C:maj
=92	=92	=92	=92	=92	=92	=92	=92	=92	=92	=92	=92
1r	.	1r	.	1r	.	1Gmm	.	strings	.	117.011	G:min7
=93	=93	=93	=93	=93	=93	=93	=93	=93	=93	=93	=93
*>Letter>C	*>Letter>C	*>Letter>C	*>Letter>C	*>Letter>C	*>Letter>C	*>Letter>C	*>Letter>C	*>Letter>C	*>Letter>C	*>Letter>C	*>Letter>C
*>Label>Interlude	*>Label>Interlude	*>Label>Interlude	*>Label>Interlude	*>Label>Interlude	*>Label>Interlude	*>Label>Interlude	*>Label>Interlude	*>Label>Interlude	*>Label>Interlude	*>Label>Interlude	*>Label>Interlude
1r	.	1r	.	1r	.	1CM	newline	strings	.	118.323	C:maj
=94	=94	=94	=94	=94	=94	=94	=94	=94	=94	=94	=94
1r	.	1r	.	1r	.	1B-M	.	strings	.	119.604	B-:maj6(9)
=95	=95	=95	=95	=95	=95	=95	=95	=95	=95	=95	=95
1r	.	1r	.	1r	.	1CM	.	strings	.	120.886	C:maj
=96	=96	=96	=96	=96	=96	=96	=96	=96	=96	=96	=96
1r	.	1r	.	1r	.	1B-M	.	strings	.	122.167	B-:maj6(9)
=97	=97	=97	=97	=97	=97	=97	=97	=97	=97	=97	=97
1r	.	1r	.	1r	.	1FM	newline	strings	.	123.448	F:maj
=98	=98	=98	=98	=98	=98	=98	=98	=98	=98	=98	=98
1r	.	1r	.	1r	.	1FM	.	strings	.	124.737	F:maj
=99	=99	=99	=99	=99	=99	=99	=99	=99	=99	=99	=99
1r	.	1r	.	1r	.	1GMm	.	strings	.	126.027	G:7
=100	=100	=100	=100	=100	=100	=100	=100	=100	=100	=100	=100
1r	.	1r	.	1r	.	1GMm	.	strings	.	127.316	G:7
=101	=101	=101	=101	=101	=101	=101	=101	=101	=101	=101	=101
1r	.	1r	.	1r	.	1CM	newline	strings	.	128.605	C:maj
=102	=102	=102	=102	=102	=102	=102	=102	=102	=102	=102	=102
1r	.	1r	.	1r	.	1B-M	.	strings	.	129.888	B-:maj6(9)
=103	=103	=103	=103	=103	=103	=103	=103	=103	=103	=103	=103
1r	.	1r	.	1r	.	1FM	.	strings	.	131.171	F:maj
=104	=104	=104	=104	=104	=104	=104	=104	=104	=104	=104	=104
1r	.	1r	.	1r	.	1Gm	->newline	strings	.	132.454	G:min6
=105	=105	=105	=105	=105	=105	=105	=105	=105	=105	=105	=105
1r	.	1r	.	1r	.	1Gm	.	strings	.	133.73	G:min6
=106	=106	=106	=106	=106	=106	=106	=106	=106	=106	=106	=106
1r	.	1r	.	1r	.	1Gmm	.	strings	.	135.006	G:min7
=107	=107	=107	=107	=107	=107	=107	=107	=107	=107	=107	=107
1r	.	1r	.	1r	.	1Gmm	.	strings	.	136.283	G:min7
=108	=108	=108	=108	=108	=108	=108	=108	=108	=108	=108	=108
1r	.	1r	.	1r	.	1CM	newline	strings	.	137.559	C:maj
r;	.	r;	.	r;	.	1r;	.	r	.	141.154	N.C.
r;	.	r;	.	r;	.	1r;	.	r	.	143.047	N.C.
*-	*-	*-	*-	*-	*-	*-	*-	*-	*-	*-	*-
!!!BillboardChartDate: 1967/04/22
!!!BillboardPeak: 45
!!!BillboardWeeksOnChart: 7
!!!COC: Nitty Gritty Dirt Band
!!!ENC: Nathaniel Condit-Schultz
!!!EST: Awating manual error checking and editing.
!!!OTL: Buy For Me The Rain
!!!RDF**chordsym: original McGill chord annotation + (implied pitch class set, with bass pitch in first position)
!!!RDF**harmony: **recip + pitch class of root + harmonic quality
!!!RDF**leadinstrument: original McGill primary instrumentation annotation
!!!RDF**phrase: newline = linebreak in original McGill transcription
!!!RDF**timestamp: McGill audio timestamp in seconds
!!!RDT: 2017/01/12/
!!!SampleActualRank: 57
!!!SampleID#: 0088
!!!SampleTargetRank: 57
